assets/img/icons/duotone-icons/Clothes/Shoes.svg

<?xml version="1.0" encoding="UTF-8"?>
<svg width="24px" height="24px" viewBox="0 0 24 24" version="1.1" xmlns="http://www.w3.org/2000/svg" xmlns:xlink="http://www.w3.org/1999/xlink">
    <!-- Generator: Sketch 52.2 (67145) - http://www.bohemiancoding.com/sketch -->
    <title>Stockholm-icons / Clothes / Shoes</title>
    <desc>Created with Sketch.</desc>
    <g id="Stockholm-icons-/-Clothes-/-Shoes" stroke="none" stroke-width="1" fill="none" fill-rule="evenodd">
        <polygon id="bound" points="0 0 24 0 24 24 0 24"></polygon>
        <path d="M4.35382545,3.51940376 C6.20314785,4.719483 7.41853936,6.04634841 8,7.5 C8.53027592,8.8256898 9.58778788,10.5731684 11.1725359,12.7424359 L11.172541,12.7424321 C11.942465,13.7963354 13.3054464,14.2315179 14.543649,13.8187837 L16.5029346,13.1656885 C16.8142402,13.0619199 17.1566464,13.1174848 17.4191624,13.3143718 L22.0098387,16.757379 C22.2307526,16.9230645 22.2755242,17.2364651 22.1098387,17.457379 C22.0284486,17.5658993 21.9064589,17.6366926 21.7718561,17.653518 L13.3911672,18.7011121 C11.9299707,18.8837616 10.4865853,18.248799 9.63388047,17.0482364 C8.12985357,14.9306473 7.08522674,13.5812351 6.5,13 C5.79078111,12.2956184 4.85091459,11.4260353 3.68040043,10.3912505 L3.6804015,10.3912493 C2.37085218,9.23355149 1.90266445,7.39267277 2.5,5.75 L3.16654581,3.91707883 C3.31753225,3.50186612 3.77652734,3.28766841 4.19174005,3.43865485 C4.24865064,3.45934961 4.3030274,3.48643943 4.35382545,3.51940376 Z" id="Path-112" fill="#335EEA"></path>
        <path d="M2.5,8.5 C3.16666667,11.8333333 3.5,14 3.5,15 C3.5,16 3.5,17.3333333 3.5,19 L5,19 C5,16.3333333 5,14.5833333 5,13.75 C5,12.9166667 5.5,12.6666667 6.5,13 L2.5,8.5 Z" id="Path-113" fill="#335EEA" opacity="0.3"></path>
    </g>
</svg>

<svg width="24" height="24" viewBox="0 0 24 24" xmlns="http://www.w3.org/2000/svg"><g fill="none" fill-rule="evenodd"><path d="M0 0h24v24H0z"/><path d="M4.354 3.52C6.204 4.72 7.419 6.045 8 7.5c.53 1.326 1.588 3.073 3.173 5.242a3 3 0 003.37 1.077l1.96-.653a1 1 0 01.916.148l4.59 3.443a.5.5 0 01-.237.897l-8.38 1.047a4 4 0 01-3.758-1.653C8.13 14.931 7.085 13.581 6.5 13a68.688 68.688 0 00-2.82-2.609A4.254 4.254 0 012.5 5.75l.667-1.833a.8.8 0 011.187-.398z" fill="#335EEA"/><path d="M2.5 8.5c.667 3.333 1 5.5 1 6.5v4H5v-5.25c0-.833.5-1.083 1.5-.75l-4-4.5z" fill="#335EEA" opacity=".3"/></g></svg>
